img/sm/keep.svg

<?xml version="1.0" encoding="UTF-8"?>
<svg width="87px" height="87px" viewBox="0 0 87 87" version="1.1" xmlns="http://www.w3.org/2000/svg" xmlns:xlink="http://www.w3.org/1999/xlink">
    <!-- Generator: Sketch 54 (76480) - https://sketchapp.com -->
    <title>形状结合</title>
    <desc>Created with Sketch.</desc>
    <g id="页面1" stroke="none" stroke-width="1" fill="none" fill-rule="evenodd">
        <path d="M23.0749668,-4.48496996e-15 L63.9250332,9.32256277e-16 C71.9487019,-5.41667744e-16 74.858278,0.8354305 77.7916113,2.40419433 C80.7249447,3.97295817 83.0270418,6.27505533 84.5958057,9.20838867 C86.1645695,12.141722 87,15.0512981 87,23.0749668 L87,63.9250332 C87,71.9487019 86.1645695,74.858278 84.5958057,77.7916113 C83.0270418,80.7249447 80.7249447,83.0270418 77.7916113,84.5958057 C74.858278,86.1645695 71.9487019,87 63.9250332,87 L23.0749668,87 C15.0512981,87 12.141722,86.1645695 9.20838867,84.5958057 C6.27505533,83.0270418 3.97295817,80.7249447 2.40419433,77.7916113 C0.8354305,74.858278 -3.19160185e-15,71.9487019 -4.17421786e-15,63.9250332 L6.21504185e-16,23.0749668 C-3.61111829e-16,15.0512981 0.8354305,12.141722 2.40419433,9.20838867 C3.97295817,6.27505533 6.27505533,3.97295817 9.20838867,2.40419433 C12.141722,0.8354305 15.0512981,-3.01104593e-15 23.0749668,-4.48496996e-15 Z M61.7702435,66.7199909 C63.1370785,68.0868259 65.3531559,68.0868259 66.7199909,66.7199909 C68.0868259,65.3531559 68.0868259,63.1370785 66.7199909,61.7702435 L46.7199909,41.7702435 C45.3531559,40.4034084 43.1370785,40.4034084 41.7702435,41.7702435 L27.7451172,55.7953697 L27.7451172,24.2451172 C27.7451172,22.3121206 26.1781138,20.7451172 24.2451172,20.7451172 C22.3121206,20.7451172 20.7451172,22.3121206 20.7451172,24.2451172 L20.7451172,64.2451172 C20.7451172,67.3632842 24.5151139,68.9248679 26.7199909,66.7199909 L44.2451172,49.1948647 L61.7702435,66.7199909 Z M61.8124279,21.7287661 L46.0673107,36.983649 L50.9326893,42.016351 L66.6778065,26.7614682 C68.0675488,25.417931 68.1050055,23.2021702 66.7614682,21.8124279 C65.417931,20.4226855 63.2021702,20.3852289 61.8124279,21.7287661 Z" id="形状结合" fill="#DCDCDC" fill-rule="nonzero"></path>
    </g>
</svg>

<svg width="87" height="87" xmlns="http://www.w3.org/2000/svg"><path d="M23.075 0h40.85c8.024 0 10.933.835 13.867 2.404a16.356 16.356 0 016.804 6.804C86.165 12.142 87 15.051 87 23.075v40.85c0 8.024-.835 10.933-2.404 13.867a16.356 16.356 0 01-6.804 6.804C74.858 86.165 71.949 87 63.925 87h-40.85c-8.024 0-10.933-.835-13.867-2.404a16.356 16.356 0 01-6.804-6.804C.835 74.858 0 71.949 0 63.925v-40.85c0-8.024.835-10.933 2.404-13.867a16.356 16.356 0 016.804-6.804C12.142.835 15.051 0 23.075 0zM61.77 66.72a3.5 3.5 0 004.95-4.95l-20-20a3.5 3.5 0 00-4.95 0L27.745 55.795v-31.55a3.5 3.5 0 00-7 0v40c0 3.118 3.77 4.68 5.975 2.475l17.525-17.525L61.77 66.72zm.042-44.991L46.067 36.984l4.866 5.032 15.745-15.255a3.5 3.5 0 10-4.866-5.032z" fill="#DCDCDC" fill-rule="nonzero"/></svg>
